;FLAVOR:UltiGCode
;TIME:15280
;MATERIAL:26731
;MATERIAL2:0
;NOZZLE_DIAMETER:0.4
;Generated with Cura_SteamEngine 4.0.0
M82 ;absolute extrusion mode

G92 E0
G10
;LAYER_COUNT:210
;LAYER:0
M107
G0 F7500 X80.815 Y89.991 Z0.27
;TYPE:SKIRT
G11
G1 F3000 X89.991 Y80.815 E1.22631
G1 X90.579 Y80.282 E1.30131
G1 X91.218 Y79.812 E1.37627
G1 X91.902 Y79.409 E1.45129
G1 X92.622 Y79.076 E1.52626
G1 X93.372 Y78.818 E1.60121
G1 X94.145 Y78.636 E1.67625
G1 X94.712 Y78.554 E1.73039
G1 X95.248 Y78.496 E1.78134
G1 X96.04 Y78.45 E1.85631
G1 X96.833 Y78.485 E1.93132
G1 X97.618 Y78.599 E2.00628
G1 X98.388 Y78.791 E2.08127
G1 X99.134 Y79.06 E2.15621
G1 X99.85 Y79.403 E2.23124
G1 X100.527 Y79.816 E2.30618
G1 X100.668 Y79.923 E2.32291
G1 X101.3 Y79.551 E2.39221
G1 X102.02 Y79.218 E2.46717
G1 X102.77 Y78.96 E2.54213
G1 X103.543 Y78.778 E2.61717
G1 X104.329 Y78.675 E2.69208
G1 X104.957 Y78.65 E2.75148
G1 X118.044 Y78.65 E3.9882
G1 X118.836 Y78.69 E4.06314
G1 X119.621 Y78.809 E4.13817
G1 X120.389 Y79.007 E4.21312
G1 X121.134 Y79.282 E4.28816
G1 X121.847 Y79.629 E4.3631
G1 X122.33 Y79.928 E4.41678
G1 X122.704 Y79.665 E4.45999
G1 X123.395 Y79.276 E4.53492
G1 X124.122 Y78.958 E4.60991
G1 X124.878 Y78.716 E4.68492
G1 X125.654 Y78.55 E4.75991
G1 X126.443 Y78.464 E4.83491
G1 X127.236 Y78.457 E4.90985
G1 X127.755 Y78.496 E4.95904
G1 X128.29 Y78.554 E5.00989
G1 X129.073 Y78.679 E5.08482
G1 X129.84 Y78.882 E5.1598
G1 X130.583 Y79.162 E5.23483
G1 X131.294 Y79.515 E5.30985
G1 X131.965 Y79.937 E5.38476
G1 X132.591 Y80.425 E5.45976
G1 X133.009 Y80.815 E5.51379
G1 X142.185 Y89.991 E6.7401
G1 X142.718 Y90.579 E6.8151
G1 X143.188 Y91.218 E6.89006
G1 X143.591 Y91.902 E6.96508
G1 X143.924 Y92.622 E7.04004
G1 X144.182 Y93.372 E7.11499
G1 X144.364 Y94.145 E7.19004
G1 X144.446 Y94.71 E7.24399
G1 X144.504 Y95.245 E7.29485
G1 X144.55 Y96.037 E7.36982
G1 X144.516 Y96.83 E7.44482
G1 X144.402 Y97.615 E7.51978
G1 X144.209 Y98.385 E7.5948
G1 X143.941 Y99.132 E7.6698
G1 X143.598 Y99.847 E7.74474
G1 X143.185 Y100.525 E7.81976
G1 X143.077 Y100.668 E7.83669
G1 X143.449 Y101.3 E7.906
G1 X143.782 Y102.02 E7.98096
G1 X144.04 Y102.77 E8.05591
G1 X144.222 Y103.543 E8.13096
G1 X144.325 Y104.329 E8.20587
G1 X144.35 Y104.957 E8.26526
G1 X144.35 Y118.043 E9.50189
G1 X144.31 Y118.835 E9.57683
G1 X144.191 Y119.62 E9.65186
G1 X143.993 Y120.388 E9.72681
G1 X143.718 Y121.133 E9.80185
G1 X143.371 Y121.846 E9.87679
G1 X143.072 Y122.329 E9.93047
G1 X143.337 Y122.707 E9.97409
G1 X143.726 Y123.399 E10.04911
G1 X144.043 Y124.126 E10.12406
G1 X144.285 Y124.882 E10.19907
G1 X144.45 Y125.658 E10.27405
G1 X144.537 Y126.447 E10.34906
G1 X144.543 Y127.24 E10.424
G1 X144.504 Y127.755 E10.47281
G1 X144.446 Y128.29 E10.52366
G1 X144.321 Y129.073 E10.59859
G1 X144.118 Y129.84 E10.67357
G1 X143.838 Y130.583 E10.7486
G1 X143.485 Y131.294 E10.82362
G1 X143.063 Y131.965 E10.89852
G1 X142.575 Y132.591 E10.97353
G1 X142.185 Y133.009 E11.02756
G1 X133.009 Y142.185 E12.25387
G1 X132.421 Y142.718 E12.32886
G1 X131.782 Y143.188 E12.40382
G1 X131.098 Y143.591 E12.47885
G1 X130.378 Y143.924 E12.55381
G1 X129.628 Y144.182 E12.62876
G1 X128.855 Y144.364 E12.70381
G1 X128.29 Y144.446 E12.75776
G1 X127.755 Y144.504 E12.80861
G1 X126.963 Y144.55 E12.88358
G1 X126.17 Y144.516 E12.95859
G1 X125.385 Y144.402 E13.03355
G1 X124.615 Y144.209 E13.10857
G1 X123.868 Y143.941 E13.18356
G1 X123.153 Y143.598 E13.2585
G1 X122.475 Y143.185 E13.33353
G1 X122.332 Y143.077 E13.35046
G1 X121.701 Y143.449 E13.41968
G1 X120.981 Y143.782 E13.49465
G1 X120.231 Y144.04 E13.5696
G1 X119.458 Y144.222 E13.64464
G1 X118.672 Y144.325 E13.71956
G1 X118.044 Y144.35 E13.77895
G1 X104.957 Y144.35 E15.01567
G1 X104.165 Y144.31 E15.09061
G1 X103.38 Y144.191 E15.16564
G1 X102.612 Y143.993 E15.24059
G1 X101.867 Y143.718 E15.31563
G1 X101.154 Y143.371 E15.39057
G1 X100.671 Y143.072 E15.44425
G1 X100.3 Y143.333 E15.48712
G1 X99.609 Y143.723 E15.5621
G1 X98.882 Y144.04 E15.63705
G1 X98.126 Y144.284 E15.71212
G1 X97.35 Y144.449 E15.78709
G1 X96.562 Y144.536 E15.86201
G1 X95.768 Y144.543 E15.93704
G1 X95.248 Y144.504 E15.98632
G1 X94.712 Y144.446 E16.03727
G1 X93.928 Y144.321 E16.11229
G1 X93.161 Y144.118 E16.18727
G1 X92.419 Y143.839 E16.26218
G1 X91.708 Y143.486 E16.3372
G1 X91.036 Y143.064 E16.41218
G1 X90.41 Y142.576 E16.48719
G1 X89.991 Y142.185 E16.54135
G1 X80.815 Y133.009 E17.76766
G1 X80.282 Y132.421 E17.84266
G1 X79.812 Y131.782 E17.91762
G1 X79.409 Y131.098 E17.99264
G1 X79.076 Y130.378 E18.06761
G1 X78.818 Y129.628 E18.14256
G1 X78.636 Y128.855 E18.2176
G1 X78.554 Y128.29 E18.27155
G1 X78.496 Y127.755 E18.32241
G1 X78.45 Y126.963 E18.39738
G1 X78.484 Y126.17 E18.47239
G1 X78.598 Y125.385 E18.54735
G1 X78.791 Y124.615 E18.62236
G1 X79.059 Y123.868 E18.69736
G1 X79.402 Y123.153 E18.7723
G1 X79.815 Y122.475 E18.84732
G1 X79.923 Y122.332 E18.86426
G1 X79.551 Y121.7 E18.93356
G1 X79.218 Y120.98 E19.00852
G1 X78.96 Y120.23 E19.08347
G1 X78.778 Y119.457 E19.15852
G1 X78.675 Y118.671 E19.23343
G1 X78.65 Y118.043 E19.29283
G1 X78.65 Y104.957 E20.52945
G1 X78.69 Y104.165 E20.60439
G1 X78.809 Y103.38 E20.67942
G1 X79.007 Y102.612 E20.75437
G1 X79.282 Y101.867 E20.82942
G1 X79.629 Y101.154 E20.90435
G1 X79.929 Y100.67 E20.95816
G1 X79.665 Y100.296 E21.00142
G1 X79.276 Y99.605 E21.07636
G1 X78.958 Y98.878 E21.15135
G1 X78.716 Y98.122 E21.22636
G1 X78.55 Y97.346 E21.30135
G1 X78.464 Y96.557 E21.37635
G1 X78.457 Y95.764 E21.45129
G1 X78.496 Y95.245 E21.50048
G1 X78.554 Y94.71 E21.55133
G1 X78.679 Y93.927 E21.62626
G1 X78.882 Y93.16 E21.70124
G1 X79.162 Y92.417 E21.77627
G1 X79.515 Y91.706 E21.85129
G1 X79.937 Y91.035 E21.92619
G1 X80.425 Y90.409 E22.0012
G1 X80.815 Y89.991 E22.05523
G0 F7500 X81.062 Y90.238
G1 F3000 X90.238 Y81.062 E23.28154
G1 X90.814 Y80.543 E23.35481
G1 X91.44 Y80.085 E23.4281
G1 X92.111 Y79.695 E23.50145
G1 X92.817 Y79.375 E23.5747
G1 X93.553 Y79.13 E23.648
G1 X94.311 Y78.962 E23.72137
G1 X94.749 Y78.902 E23.76315
G1 X95.285 Y78.844 E23.8141
G1 X96.06 Y78.8 E23.88745
G1 X96.835 Y78.836 E23.96077
G1 X97.602 Y78.952 E24.03407
G1 X98.352 Y79.147 E24.1073
G1 X99.079 Y79.417 E24.18059
G1 X99.775 Y79.761 E24.25396
G1 X100.431 Y80.175 E24.32726
G1 X100.662 Y80.356 E24.355
G1 X100.838 Y80.227 E24.37562
G1 X101.509 Y79.837 E24.44896
G1 X102.215 Y79.517 E24.52221
G1 X102.951 Y79.272 E24.59551
G1 X103.709 Y79.104 E24.66888
G1 X104.479 Y79.015 E24.74213
G1 X104.957 Y79 E24.78733
G1 X118.044 Y79 E26.02405
G1 X118.819 Y79.04 E26.09738
G1 X119.585 Y79.159 E26.17064
G1 X120.335 Y79.357 E26.24394
G1 X121.061 Y79.631 E26.31727
G1 X121.754 Y79.978 E26.39051
G1 X122.337 Y80.35 E26.45586
G1 X122.395 Y80.302 E26.46298
G1 X123.039 Y79.87 E26.53626
G1 X123.724 Y79.506 E26.60957
G1 X124.443 Y79.215 E26.68286
G1 X125.188 Y78.999 E26.75617
G1 X125.951 Y78.861 E26.82944
G1 X126.725 Y78.802 E26.9028
G1 X127.717 Y78.844 E26.99662
G1 X128.252 Y78.902 E27.04748
G1 X129.018 Y79.025 E27.12079
G1 X129.767 Y79.226 E27.19408
G1 X130.491 Y79.504 E27.26736
G1 X131.183 Y79.854 E27.34065
G1 X131.835 Y80.274 E27.41394
G1 X132.441 Y80.759 E27.48729
G1 X132.762 Y81.062 E27.529
G1 X141.938 Y90.238 E28.75531
G1 X142.457 Y90.814 E28.82858
G1 X142.915 Y91.44 E28.90188
G1 X143.305 Y92.111 E28.97522
G1 X143.625 Y92.817 E29.04847
G1 X143.87 Y93.553 E29.12178
G1 X144.038 Y94.311 E29.19515
G1 X144.098 Y94.748 E29.23683
G1 X144.156 Y95.283 E29.28768
G1 X144.2 Y96.057 E29.36094
G1 X144.164 Y96.832 E29.43426
G1 X144.048 Y97.599 E29.50757
G1 X143.854 Y98.35 E29.58087
G1 X143.583 Y99.077 E29.65418
G1 X143.24 Y99.772 E29.72743
G1 X142.826 Y100.429 E29.80081
G1 X142.644 Y100.661 E29.82868
G1 X142.773 Y100.838 E29.84937
G1 X143.163 Y101.509 E29.92271
G1 X143.483 Y102.215 E29.99597
G1 X143.728 Y102.951 E30.06927
G1 X143.896 Y103.709 E30.14264
G1 X143.985 Y104.479 E30.21589
G1 X144 Y104.957 E30.26108
G1 X144 Y118.043 E31.49771
G1 X143.96 Y118.818 E31.57104
G1 X143.841 Y119.584 E31.6443
G1 X143.643 Y120.334 E31.7176
G1 X143.369 Y121.06 E31.79093
G1 X143.022 Y121.753 E31.86417
G1 X142.649 Y122.337 E31.92966
G1 X142.7 Y122.398 E31.93717
G1 X143.132 Y123.042 E32.01045
G1 X143.496 Y123.728 E32.08384
G1 X143.787 Y124.447 E32.15714
G1 X144.002 Y125.192 E32.23042
G1 X144.14 Y125.955 E32.30369
G1 X144.198 Y126.728 E32.37694
G1 X144.156 Y127.717 E32.47049
G1 X144.098 Y128.252 E32.52134
G1 X143.975 Y129.018 E32.59466
G1 X143.774 Y129.767 E32.66794
G1 X143.496 Y130.491 E32.74123
G1 X143.146 Y131.183 E32.81451
G1 X142.726 Y131.835 E32.8878
G1 X142.241 Y132.441 E32.96115
G1 X141.938 Y132.762 E33.00287
G1 X132.762 Y141.938 E34.22918
G1 X132.186 Y142.457 E34.30244
G1 X131.56 Y142.915 E34.37574
G1 X130.889 Y143.305 E34.44909
G1 X130.183 Y143.625 E34.52234
G1 X129.447 Y143.87 E34.59564
G1 X128.689 Y144.038 E34.66901
G1 X128.252 Y144.098 E34.71069
G1 X127.717 Y144.156 E34.76155
G1 X126.943 Y144.2 E34.83481
G1 X126.168 Y144.164 E34.90812
G1 X125.401 Y144.048 E34.98143
G1 X124.65 Y143.854 E35.05473
G1 X123.923 Y143.583 E35.12805
G1 X123.228 Y143.24 E35.20129
G1 X122.571 Y142.826 E35.27467
G1 X122.339 Y142.644 E35.30254
G1 X122.163 Y142.773 E35.32316
G1 X121.492 Y143.163 E35.3965
G1 X120.786 Y143.483 E35.46975
G1 X120.05 Y143.728 E35.54306
G1 X119.292 Y143.896 E35.61643
G1 X118.522 Y143.985 E35.68968
G1 X118.044 Y144 E35.73487
G1 X104.957 Y144 E36.97159
G1 X104.182 Y143.96 E37.04493
G1 X103.416 Y143.841 E37.11818
G1 X102.666 Y143.643 E37.19148
G1 X101.94 Y143.369 E37.26481
G1 X101.247 Y143.022 E37.33805
G1 X100.663 Y142.65 E37.40349
G1 X100.608 Y142.696 E37.41026
G1 X99.965 Y143.129 E37.48352
G1 X99.28 Y143.493 E37.55682
G1 X98.561 Y143.784 E37.63012
G1 X97.816 Y144.001 E37.70345
G1 X97.053 Y144.139 E37.77673
G1 X96.279 Y144.198 E37.85008
G1 X95.285 Y144.156 E37.9441
G1 X94.749 Y144.098 E37.99504
G1 X93.984 Y143.975 E38.06827
G1 X93.235 Y143.774 E38.14155
G1 X92.51 Y143.497 E38.21489
G1 X91.818 Y143.146 E38.28822
G1 X91.166 Y142.727 E38.36146
G1 X90.56 Y142.242 E38.43481
G1 X90.238 Y141.938 E38.47666
G1 X81.062 Y132.762 E39.70297
G1 X80.543 Y132.186 E39.77623
G1 X80.085 Y131.56 E39.84953
G1 X79.695 Y130.889 E39.92288
G1 X79.375 Y130.183 E39.99613
G1 X79.13 Y129.447 E40.06943
G1 X78.962 Y128.689 E40.1428
G1 X78.902 Y128.252 E40.18448
G1 X78.844 Y127.717 E40.23534
G1 X78.8 Y126.943 E40.3086
G1 X78.836 Y126.168 E40.38191
G1 X78.952 Y125.401 E40.45522
G1 X79.146 Y124.65 E40.52852
G1 X79.417 Y123.923 E40.60184
G1 X79.76 Y123.228 E40.67508
G1 X80.174 Y122.571 E40.74846
G1 X80.356 Y122.339 E40.77633
G1 X80.227 Y122.162 E40.79703
G1 X79.837 Y121.491 E40.87037
G1 X79.517 Y120.785 E40.94362
G1 X79.272 Y120.049 E41.01692
G1 X79.104 Y119.291 E41.09029
G1 X79.015 Y118.521 E41.16354
G1 X79 Y118.043 E41.20874
G1 X79 Y104.957 E42.44536
G1 X79.04 Y104.182 E42.5187
G1 X79.159 Y103.416 E42.59195
G1 X79.357 Y102.666 E42.66526
G1 X79.631 Y101.94 E42.73859
G1 X79.978 Y101.247 E42.81183
G1 X80.35 Y100.663 E42.87726
G1 X80.302 Y100.605 E42.88437
G1 X79.87 Y99.961 E42.95766
G1 X79.506 Y99.276 E43.03096
G1 X79.215 Y98.557 E43.10426
G1 X78.999 Y97.812 E43.17756
G1 X78.861 Y97.049 E43.25084
G1 X78.802 Y96.275 E43.32419
G1 X78.844 Y95.283 E43.41802
G1 X78.902 Y94.748 E43.46887
G1 X79.025 Y93.982 E43.54219
G1 X79.226 Y93.233 E43.61547
G1 X79.504 Y92.509 E43.68876
G1 X79.854 Y91.817 E43.76204
G1 X80.274 Y91.165 E43.83533
G1 X80.759 Y90.559 E43.90868
G1 X81.062 Y90.238 E43.9504
G0 F7500 X81.31 Y90.486
G1 F3000 X90.486 Y81.31 E45.17671
G1 X91.049 Y80.803 E45.2483
G1 X91.662 Y80.359 E45.31983
G1 X92.319 Y79.981 E45.39146
G1 X93.011 Y79.675 E45.46296
G1 X93.733 Y79.444 E45.5346
G1 X94.787 Y79.25 E45.63587
G1 X95.323 Y79.192 E45.68682
G1 X96.079 Y79.15 E45.75837
G1 X96.836 Y79.188 E45.83
G1 X97.584 Y79.306 E45.90156
G1 X98.315 Y79.502 E45.97308
G1 X99.022 Y79.774 E46.04467
G1 X99.696 Y80.119 E46.11622
G1 X100.33 Y80.534 E46.18783
G1 X100.652 Y80.796 E46.22705
G1 X101.06 Y80.501 E46.27463
G1 X101.717 Y80.123 E46.34626
G1 X102.409 Y79.817 E46.41776
G1 X103.131 Y79.586 E46.4894
G1 X103.872 Y79.432 E46.56092
G1 X104.957 Y79.35 E46.66375
G1 X118.044 Y79.35 E47.90047
G1 X118.8 Y79.39 E47.97201
G1 X119.548 Y79.509 E48.04358
G1 X120.279 Y79.707 E48.11515
G1 X120.986 Y79.981 E48.18681
G1 X121.659 Y80.327 E48.25832
G1 X122.292 Y80.743 E48.3299
G1 X122.351 Y80.793 E48.33721
G1 X122.734 Y80.487 E48.38353
G1 X123.373 Y80.08 E48.45513
G1 X124.051 Y79.742 E48.52672
G1 X124.761 Y79.478 E48.5983
G1 X125.494 Y79.29 E48.66981
G1 X126.244 Y79.181 E48.74143
G1 X127.001 Y79.151 E48.81302
G1 X127.679 Y79.192 E48.87721
G1 X128.214 Y79.25 E48.92807
G1 X128.962 Y79.371 E48.99967
G1 X129.693 Y79.57 E49.07126
G1 X130.398 Y79.846 E49.14281
G1 X131.071 Y80.194 E49.21441
G1 X131.703 Y80.611 E49.28596
G1 X132.514 Y81.31 E49.38714
G1 X141.69 Y90.486 E50.61345
G1 X142.197 Y91.049 E50.68505
G1 X142.641 Y91.662 E50.75657
G1 X143.019 Y92.319 E50.8282
G1 X143.325 Y93.011 E50.8997
G1 X143.556 Y93.733 E50.97134
G1 X143.75 Y94.786 E51.07252
G1 X143.808 Y95.321 E51.12338
G1 X143.85 Y96.077 E51.19493
G1 X143.812 Y96.833 E51.26646
G1 X143.694 Y97.581 E51.33802
G1 X143.498 Y98.313 E51.40963
G1 X143.226 Y99.02 E51.48122
G1 X142.881 Y99.694 E51.55277
G1 X142.467 Y100.328 E51.62433
G1 X142.203 Y100.652 E51.66382
G1 X142.499 Y101.06 E51.71146
G1 X142.877 Y101.717 E51.78308
G1 X143.183 Y102.409 E51.85459
G1 X143.414 Y103.131 E51.92622
G1 X143.568 Y103.872 E51.99774
G1 X143.65 Y104.957 E52.10057
G1 X143.65 Y118.043 E53.3372
G1 X143.61 Y118.799 E53.40874
G1 X143.491 Y119.547 E53.48031
G1 X143.293 Y120.278 E53.55188
G1 X143.019 Y120.985 E53.62353
G1 X142.673 Y121.658 E53.69505
G1 X142.257 Y122.291 E53.76663
G1 X142.206 Y122.35 E53.774
G1 X142.515 Y122.737 E53.82079
G1 X142.922 Y123.376 E53.89239
G1 X143.259 Y124.054 E53.96394
G1 X143.523 Y124.764 E54.03552
G1 X143.71 Y125.498 E54.1071
G1 X143.82 Y126.247 E54.17864
G1 X143.849 Y127.004 E54.25023
G1 X143.808 Y127.679 E54.31413
G1 X143.75 Y128.214 E54.36499
G1 X143.629 Y128.962 E54.43659
G1 X143.43 Y129.693 E54.50819
G1 X143.154 Y130.398 E54.57973
G1 X142.806 Y131.071 E54.65133
G1 X142.389 Y131.703 E54.72288
G1 X141.69 Y132.514 E54.82406
G1 X132.514 Y141.69 E56.05037
G1 X131.951 Y142.197 E56.12197
G1 X131.338 Y142.641 E56.19349
G1 X130.681 Y143.019 E56.26512
G1 X129.989 Y143.325 E56.33663
G1 X129.267 Y143.556 E56.40826
G1 X128.214 Y143.75 E56.50944
G1 X127.679 Y143.808 E56.5603
G1 X126.923 Y143.85 E56.63185
G1 X126.167 Y143.812 E56.70338
G1 X125.419 Y143.694 E56.77494
G1 X124.687 Y143.498 E56.84655
G1 X123.98 Y143.226 E56.91814
G1 X123.306 Y142.881 E56.98969
G1 X122.672 Y142.467 E57.06125
G1 X122.349 Y142.204 E57.10061
G1 X121.941 Y142.499 E57.14819
G1 X121.284 Y142.877 E57.21982
G1 X120.592 Y143.183 E57.29132
G1 X119.87 Y143.414 E57.36295
G1 X119.129 Y143.568 E57.43448
G1 X118.044 Y143.65 E57.5373
G1 X104.957 Y143.65 E58.77402
G1 X104.201 Y143.61 E58.84556
G1 X103.453 Y143.491 E58.91714
G1 X102.722 Y143.293 E58.98871
G1 X102.015 Y143.019 E59.06036
G1 X101.342 Y142.673 E59.13187
G1 X100.709 Y142.257 E59.20345
G1 X100.65 Y142.206 E59.21082
G1 X100.269 Y142.511 E59.25694
G1 X99.631 Y142.918 E59.32846
G1 X98.953 Y143.256 E59.40005
G1 X98.243 Y143.521 E59.47166
G1 X97.51 Y143.709 E59.54317
G1 X96.76 Y143.819 E59.61481
G1 X96.003 Y143.849 E59.6864
G1 X95.323 Y143.808 E59.75078
G1 X94.787 Y143.75 E59.80172
G1 X94.039 Y143.629 E59.87333
G1 X93.309 Y143.43 E59.94483
G1 X92.603 Y143.155 E60.01643
G1 X91.931 Y142.807 E60.08795
G1 X91.298 Y142.39 E60.15958
G1 X90.486 Y141.69 E60.26089
G1 X81.31 Y132.514 E61.4872
G1 X80.803 Y131.951 E61.55879
G1 X80.359 Y131.338 E61.63032
G1 X79.981 Y130.681 E61.70195
G1 X79.675 Y129.989 E61.77345
G1 X79.444 Y129.267 E61.84509
G1 X79.25 Y128.214 E61.94627
G1 X79.192 Y127.679 E61.99713
G1 X79.15 Y126.923 E62.06868
G1 X79.188 Y126.167 E62.14021
G1 X79.306 Y125.419 E62.21177
G1 X79.502 Y124.687 E62.28338
G1 X79.774 Y123.98 E62.35497
G1 X80.119 Y123.306 E62.42652
G1 X80.533 Y122.672 E62.49808
G1 X80.797 Y122.348 E62.53757
G1 X80.501 Y121.94 E62.5852
G1 X80.123 Y121.283 E62.65683
G1 X79.817 Y120.591 E62.72834
G1 X79.586 Y119.869 E62.79997
G1 X79.432 Y119.128 E62.87149
G1 X79.35 Y118.043 E62.97432
G1 X79.35 Y104.957 E64.21094
