;FLAVOR:UltiGCode
;TIME:3238
;MATERIAL:5636
;MATERIAL2:0
;NOZZLE_DIAMETER:0.4
;Generated with Cura_SteamEngine 4.0.0
M82 ;absolute extrusion mode

G92 E0
G10
;LAYER_COUNT:92
;LAYER:0
M107
G0 F7500 X90.108 Y99.478 Z0.27
;TYPE:SKIRT
G11
G1 F3000 X99.559 Y90.061 E1.26079
G1 X100.148 Y89.529 E1.3358
G1 X100.788 Y89.06 E1.41078
G1 X101.472 Y88.658 E1.48575
G1 X102.193 Y88.327 E1.56072
G1 X102.944 Y88.07 E1.63573
G1 X103.717 Y87.89 E1.71074
G1 X104.503 Y87.788 E1.78564
G1 X105.134 Y87.764 E1.84531
G1 X117.963 Y87.791 E3.05765
G1 X118.755 Y87.833 E3.1326
G1 X119.539 Y87.954 E3.20757
G1 X120.307 Y88.153 E3.28254
G1 X121.051 Y88.429 E3.35753
G1 X121.764 Y88.778 E3.43255
G1 X122.437 Y89.197 E3.50746
G1 X123.066 Y89.682 E3.58252
G1 X123.526 Y90.109 E3.64183
G1 X132.94 Y99.561 E4.90249
G1 X133.471 Y100.15 E4.97743
G1 X133.939 Y100.791 E5.05243
G1 X134.342 Y101.475 E5.12746
G1 X134.673 Y102.196 E5.20243
G1 X134.93 Y102.946 E5.27735
G1 X135.11 Y103.719 E5.35235
G1 X135.211 Y104.506 E5.42733
G1 X135.235 Y105.134 E5.48672
G1 X135.209 Y117.961 E6.69888
G1 X135.167 Y118.753 E6.77383
G1 X135.046 Y119.538 E6.84888
G1 X134.847 Y120.306 E6.92386
G1 X134.571 Y121.05 E6.99885
G1 X134.222 Y121.762 E7.07378
G1 X133.803 Y122.436 E7.14878
G1 X133.318 Y123.064 E7.22376
G1 X132.892 Y123.524 E7.28301
G1 X123.44 Y132.941 E8.54387
G1 X122.851 Y133.472 E8.61881
G1 X122.21 Y133.941 E8.69386
G1 X121.526 Y134.343 E8.76884
G1 X120.805 Y134.674 E8.84381
G1 X120.055 Y134.931 E8.91873
G1 X119.282 Y135.112 E8.99376
G1 X118.495 Y135.213 E9.06874
G1 X117.865 Y135.237 E9.12831
G1 X105.042 Y135.209 E10.34009
G1 X104.249 Y135.167 E10.41513
G1 X103.465 Y135.046 E10.4901
G1 X102.697 Y134.847 E10.56507
G1 X101.953 Y134.571 E10.64006
G1 X101.241 Y134.221 E10.71504
G1 X100.567 Y133.802 E10.79003
G1 X99.939 Y133.317 E10.86502
G1 X99.482 Y132.894 E10.92386
G1 X90.063 Y123.445 E12.18466
G1 X89.532 Y122.855 E12.25967
G1 X89.062 Y122.215 E12.3347
G1 X88.66 Y121.531 E12.40968
G1 X88.329 Y120.81 E12.48465
G1 X88.071 Y120.06 E12.5596
G1 X87.891 Y119.287 E12.6346
G1 X87.789 Y118.5 E12.7096
G1 X87.765 Y117.869 E12.76927
G1 X87.791 Y105.04 E13.98161
G1 X87.833 Y104.248 E14.05656
G1 X87.954 Y103.463 E14.13162
G1 X88.153 Y102.695 E14.20659
G1 X88.429 Y101.951 E14.28158
G1 X88.778 Y101.239 E14.35652
G1 X89.197 Y100.565 E14.43151
G1 X89.682 Y99.937 E14.5065
G1 X90.108 Y99.478 E14.56568
G0 F7500 X90.355 Y99.725
G1 F3000 X99.806 Y90.308 E15.82647
G1 X100.383 Y89.79 E15.89974
G1 X101.01 Y89.334 E15.97301
G1 X101.681 Y88.944 E16.04635
G1 X102.388 Y88.626 E16.11961
G1 X103.124 Y88.383 E16.19285
G1 X103.882 Y88.216 E16.2662
G1 X104.653 Y88.128 E16.33953
G1 X105.133 Y88.114 E16.38491
G1 X117.962 Y88.141 E17.59726
G1 X118.736 Y88.183 E17.67051
G1 X119.502 Y88.304 E17.74379
G1 X120.252 Y88.503 E17.81712
G1 X120.977 Y88.778 E17.89039
G1 X121.67 Y89.127 E17.96372
G1 X122.323 Y89.545 E18.03699
G1 X122.93 Y90.028 E18.11029
G1 X123.278 Y90.356 E18.15548
G1 X132.692 Y99.808 E19.41614
G1 X133.21 Y100.385 E19.48942
G1 X133.666 Y101.012 E19.56268
G1 X134.055 Y101.683 E19.63598
G1 X134.373 Y102.39 E19.70924
G1 X134.617 Y103.127 E19.7826
G1 X134.783 Y103.884 E19.85584
G1 X134.871 Y104.655 E19.92917
G1 X134.885 Y105.133 E19.97436
G1 X134.859 Y117.96 E21.18651
G1 X134.817 Y118.735 E21.25986
G1 X134.696 Y119.501 E21.33314
G1 X134.497 Y120.25 E21.40638
G1 X134.222 Y120.976 E21.47974
G1 X133.873 Y121.668 E21.55298
G1 X133.455 Y122.322 E21.62633
G1 X132.972 Y122.929 E21.69964
G1 X132.645 Y123.276 E21.74469
G1 X123.193 Y132.693 E23.00555
G1 X122.616 Y133.211 E23.07883
G1 X121.989 Y133.667 E23.15209
G1 X121.318 Y134.057 E23.22543
G1 X120.611 Y134.375 E23.29869
G1 X119.874 Y134.618 E23.37203
G1 X119.117 Y134.785 E23.44528
G1 X118.346 Y134.873 E23.51862
G1 X117.866 Y134.887 E23.564
G1 X105.043 Y134.859 E24.77577
G1 X104.268 Y134.817 E24.84912
G1 X103.502 Y134.696 E24.9224
G1 X102.752 Y134.497 E24.99573
G1 X102.027 Y134.221 E25.06904
G1 X101.334 Y133.873 E25.14232
G1 X100.681 Y133.455 E25.21559
G1 X100.074 Y132.971 E25.28895
G1 X99.73 Y132.647 E25.33361
G1 X90.311 Y123.198 E26.5944
G1 X89.792 Y122.621 E26.66774
G1 X89.336 Y121.994 E26.741
G1 X88.946 Y121.323 E26.81435
G1 X88.628 Y120.615 E26.88769
G1 X88.384 Y119.879 E26.96097
G1 X88.217 Y119.122 E27.03422
G1 X88.129 Y118.351 E27.10756
G1 X88.115 Y117.87 E27.15303
G1 X88.141 Y105.041 E28.36537
G1 X88.183 Y104.266 E28.43872
G1 X88.304 Y103.5 E28.512
G1 X88.503 Y102.751 E28.58524
G1 X88.778 Y102.025 E28.6586
G1 X89.127 Y101.333 E28.73184
G1 X89.545 Y100.679 E28.80519
G1 X90.028 Y100.072 E28.8785
G1 X90.355 Y99.725 E28.92355
G0 F7500 X90.602 Y99.973
G1 F3000 X100.053 Y90.556 E30.18434
G1 X100.617 Y90.051 E30.25589
G1 X101.231 Y89.608 E30.32743
G1 X101.888 Y89.232 E30.39897
G1 X102.582 Y88.927 E30.47061
G1 X103.303 Y88.697 E30.54212
G1 X104.045 Y88.545 E30.6137
G1 X105.132 Y88.464 E30.71671
G1 X117.961 Y88.491 E31.92905
G1 X118.717 Y88.533 E32.0006
G1 X119.465 Y88.654 E32.07221
G1 X120.196 Y88.853 E32.1438
G1 X120.901 Y89.128 E32.21531
G1 X121.574 Y89.476 E32.28691
G1 X122.206 Y89.893 E32.35846
G1 X123.03 Y90.603 E32.46125
G1 X132.444 Y100.055 E33.72191
G1 X132.949 Y100.619 E33.79345
G1 X133.392 Y101.233 E33.865
G1 X133.768 Y101.891 E33.93661
G1 X134.073 Y102.584 E34.00816
G1 X134.302 Y103.306 E34.07974
G1 X134.455 Y104.048 E34.15134
G1 X134.535 Y105.133 E34.25415
G1 X134.509 Y117.96 E35.4663
G1 X134.467 Y118.716 E35.53785
G1 X134.346 Y119.463 E35.60937
G1 X134.147 Y120.194 E35.68096
G1 X133.872 Y120.9 E35.75256
G1 X133.524 Y121.573 E35.82416
G1 X133.108 Y122.205 E35.89566
G1 X132.398 Y123.028 E35.99837
G1 X122.946 Y132.445 E37.25923
G1 X122.382 Y132.95 E37.33077
G1 X121.768 Y133.394 E37.40238
G1 X121.111 Y133.77 E37.47391
G1 X120.417 Y134.074 E37.54551
G1 X119.695 Y134.304 E37.61712
G1 X118.954 Y134.457 E37.68862
G1 X117.866 Y134.537 E37.79171
G1 X105.043 Y134.509 E39.00349
G1 X104.287 Y134.467 E39.07504
G1 X103.539 Y134.346 E39.14665
G1 X102.809 Y134.147 E39.21815
G1 X102.103 Y133.872 E39.28975
G1 X101.431 Y133.524 E39.36126
G1 X100.798 Y133.107 E39.43289
G1 X99.977 Y132.399 E39.53534
G1 X90.558 Y122.95 E40.79613
G1 X90.053 Y122.387 E40.86761
G1 X89.609 Y121.773 E40.93921
G1 X89.233 Y121.115 E41.01083
G1 X88.928 Y120.422 E41.08238
G1 X88.698 Y119.7 E41.15398
G1 X88.546 Y118.958 E41.22556
G1 X88.465 Y117.87 E41.32866
G1 X88.491 Y105.041 E42.541
G1 X88.533 Y104.285 E42.61256
G1 X88.654 Y103.538 E42.68407
G1 X88.853 Y102.807 E42.75566
G1 X89.128 Y102.101 E42.82726
G1 X89.476 Y101.428 E42.89886
G1 X89.892 Y100.796 E42.97036
G1 X90.602 Y99.973 E43.07307
G0 F7500 X90.849 Y100.221
G1 F3000 X100.3 Y90.804 E44.33387
G1 X100.85 Y90.312 E44.4036
G1 X101.451 Y89.882 E44.47344
G1 X102.095 Y89.52 E44.54325
G1 X102.774 Y89.229 E44.61306
G1 X103.48 Y89.013 E44.68283
G1 X104.206 Y88.875 E44.75266
G1 X105.131 Y88.814 E44.84027
G1 X117.96 Y88.841 E46.05261
G1 X118.698 Y88.883 E46.12246
G1 X119.427 Y89.004 E46.1923
G1 X120.138 Y89.203 E46.26207
G1 X120.824 Y89.477 E46.33188
G1 X121.475 Y89.824 E46.40159
G1 X122.086 Y90.24 E46.47144
G1 X122.782 Y90.85 E46.5589
G1 X132.196 Y100.302 E47.81956
G1 X132.688 Y100.853 E47.88936
G1 X133.118 Y101.453 E47.95912
G1 X133.48 Y102.097 E48.02893
G1 X133.771 Y102.776 E48.09874
G1 X133.986 Y103.483 E48.16858
G1 X134.124 Y104.208 E48.23832
G1 X134.185 Y105.132 E48.32583
G1 X134.159 Y117.959 E49.53798
G1 X134.118 Y118.696 E49.60774
G1 X133.997 Y119.425 E49.67757
G1 X133.798 Y120.136 E49.74734
G1 X133.523 Y120.822 E49.81718
G1 X133.176 Y121.474 E49.88698
G1 X132.76 Y122.085 E49.95683
G1 X132.151 Y122.78 E50.04416
G1 X122.699 Y132.197 E51.30501
G1 X122.148 Y132.689 E51.37482
G1 X121.548 Y133.119 E51.44458
G1 X120.904 Y133.481 E51.51439
G1 X120.225 Y133.772 E51.5842
G1 X119.519 Y133.988 E51.65397
G1 X118.793 Y134.126 E51.72381
G1 X117.867 Y134.187 E51.8115
G1 X105.044 Y134.159 E53.02328
G1 X104.307 Y134.117 E53.09304
G1 X103.578 Y133.996 E53.16287
G1 X102.867 Y133.797 E53.23264
G1 X102.181 Y133.523 E53.30245
G1 X101.529 Y133.175 E53.37229
G1 X100.918 Y132.76 E53.44209
G1 X100.225 Y132.152 E53.52921
G1 X90.806 Y122.703 E54.79
G1 X90.314 Y122.153 E54.85974
G1 X89.884 Y121.552 E54.92957
G1 X89.521 Y120.909 E54.99935
G1 X89.23 Y120.23 E55.06916
G1 X89.015 Y119.523 E55.13899
G1 X88.876 Y118.798 E55.20875
G1 X88.815 Y117.871 E55.29654
G1 X88.841 Y105.042 E56.50889
G1 X88.882 Y104.305 E56.57864
G1 X89.003 Y103.576 E56.64847
G1 X89.202 Y102.865 E56.71825
G1 X89.477 Y102.179 E56.78809
G1 X89.824 Y101.527 E56.85788
G1 X90.24 Y100.916 E56.92774
G1 X90.849 Y100.221 E57.01506
G0 F7500 X91.096 Y100.469
G1 F3000 X100.547 Y91.052 E58.27585
G1 X101.084 Y90.574 E58.34379
G1 X101.671 Y90.157 E58.41183
G1 X102.3 Y89.809 E58.47977
G1 X102.964 Y89.532 E58.54776
G1 X103.655 Y89.331 E58.61576
G1 X104.364 Y89.208 E58.68376
G1 X105.131 Y89.164 E58.75636
G1 X117.96 Y89.191 E59.96871
G1 X118.678 Y89.232 E60.03667
G1 X119.387 Y89.353 E60.10464
G1 X120.079 Y89.552 E60.17268
G1 X120.744 Y89.827 E60.24069
G1 X121.374 Y90.173 E60.30861
G1 X121.962 Y90.587 E60.37657
G1 X122.534 Y91.097 E60.44898
G1 X131.948 Y100.549 E61.70964
G1 X132.426 Y101.086 E61.77758
G1 X132.842 Y101.673 E61.84557
G1 X133.191 Y102.302 E61.91355
G1 X133.467 Y102.967 E61.98159
G1 X133.668 Y103.657 E62.0495
G1 X133.791 Y104.366 E62.1175
G1 X133.835 Y105.131 E62.18992
G1 X133.809 Y117.958 E63.40207
G1 X133.768 Y118.676 E63.47003
G1 X133.647 Y119.386 E63.53809
G1 X133.448 Y120.077 E63.60605
G1 X133.174 Y120.742 E63.67402
G1 X132.827 Y121.373 E63.74207
G1 X132.413 Y121.961 E63.81002
G1 X131.904 Y122.532 E63.88231
G1 X122.452 Y131.949 E65.14317
G1 X121.915 Y132.428 E65.21117
G1 X121.328 Y132.844 E65.27916
G1 X120.699 Y133.192 E65.34709
G1 X120.034 Y133.469 E65.41517
G1 X119.344 Y133.67 E65.48308
G1 X118.635 Y133.793 E65.55108
G1 X117.868 Y133.837 E65.62368
G1 X105.045 Y133.809 E66.83546
G1 X104.327 Y133.767 E66.90343
G1 X103.617 Y133.646 E66.97149
G1 X102.926 Y133.448 E67.03942
G1 X102.261 Y133.173 E67.10742
G1 X101.63 Y132.827 E67.17543
G1 X101.042 Y132.412 E67.24344
G1 X100.473 Y131.905 E67.31546
G1 X91.054 Y122.456 E68.57625
G1 X90.575 Y121.919 E68.64425
G1 X90.159 Y121.332 E68.71224
G1 X89.81 Y120.703 E68.78022
G1 X89.534 Y120.039 E68.84817
G1 X89.333 Y119.348 E68.91618
G1 X89.209 Y118.64 E68.9841
G1 X89.165 Y117.872 E69.0568
G1 X89.191 Y105.043 E70.26914
G1 X89.232 Y104.325 E70.3371
G1 X89.353 Y103.615 E70.40516
G1 X89.552 Y102.924 E70.47312
G1 X89.826 Y102.259 E70.54108
G1 X90.173 Y101.628 E70.60913
G1 X90.587 Y101.04 E70.67709
G1 X91.096 Y100.469 E70.74938
G0 F7500 X91.343 Y100.717
G1 F3000 X100.794 Y91.3 E72.01017
G1 X101.317 Y90.835 E72.0763
G1 X101.89 Y90.433 E72.14245
G1 X102.504 Y90.099 E72.2085
G1 X103.153 Y89.837 E72.27464
G1 X103.828 Y89.651 E72.34081
G1 X104.519 Y89.543 E72.4069
G1 X105.13 Y89.514 E72.4647
G1 X117.959 Y89.541 E73.67705
G1 X118.657 Y89.582 E73.74312
G1 X119.347 Y89.703 E73.80932
G1 X120.018 Y89.902 E73.87546
G1 X120.661 Y90.176 E73.94151
G1 X121.27 Y90.521 E74.00765
G1 X121.835 Y90.934 E74.07379
G1 X122.286 Y91.344 E74.13139
G1 X131.7 Y100.796 E75.39205
G1 X132.164 Y101.319 E75.45812
G1 X132.566 Y101.892 E75.52426
G1 X132.9 Y102.506 E75.59032
G1 X133.162 Y103.155 E75.65645
G1 X133.348 Y103.83 E75.72262
G1 X133.456 Y104.521 E75.78871
G1 X133.485 Y105.13 E75.84633
G1 X133.459 Y117.957 E77.05848
G1 X133.418 Y118.656 E77.12465
G1 X133.297 Y119.345 E77.19076
G1 X133.098 Y120.016 E77.2569
G1 X132.824 Y120.66 E77.32303
G1 X132.479 Y121.268 E77.3891
G1 X132.066 Y121.834 E77.45531
G1 X131.657 Y122.284 E77.51277
G1 X122.205 Y131.701 E78.77363
G1 X121.682 Y132.166 E78.83977
G1 X121.109 Y132.568 E78.90591
G1 X120.494 Y132.902 E78.97205
G1 X119.846 Y133.164 E79.0381
G1 X119.171 Y133.35 E79.10426
G1 X118.48 Y133.458 E79.17036
G1 X117.869 Y133.487 E79.22816
G1 X105.046 Y133.459 E80.43994
G1 X104.347 Y133.417 E80.50611
G1 X103.658 Y133.297 E80.5722
G1 X102.987 Y133.098 E80.63834
G1 X102.343 Y132.824 E80.70448
G1 X101.735 Y132.478 E80.77059
G1 X101.17 Y132.066 E80.83667
G1 X100.721 Y131.658 E80.894
G1 X91.302 Y122.209 E82.15479
G1 X90.837 Y121.686 E82.22092
G1 X90.435 Y121.114 E82.28699
G1 X90.101 Y120.499 E82.35313
G1 X89.839 Y119.85 E82.41927
G1 X89.653 Y119.176 E82.48534
G1 X89.544 Y118.484 E82.55154
G1 X89.515 Y117.873 E82.60934
G1 X89.541 Y105.044 E83.82169
G1 X89.582 Y104.345 E83.88786
G1 X89.703 Y103.656 E83.95396
G1 X89.902 Y102.985 E84.0201
G1 X90.176 Y102.341 E84.08624
G1 X90.521 Y101.733 E84.1523
G1 X90.934 Y101.167 E84.21851
G1 X91.343 Y100.717 E84.27598
G0 F7500 X91.59 Y100.965
G1 F3000 X101.041 Y91.548 E85.53677
G1 X101.549 Y91.098 E85.6009
G1 X102.108 Y90.71 E85.66521
G1 X102.707 Y90.391 E85.72934
G1 X103.34 Y90.144 E85.79355
G1 X103.998 Y89.973 E85.8578
G1 X104.671 Y89.881 E85.92199
G1 X105.129 Y89.864 E85.9653
G1 X117.958 Y89.891 E87.17764
G1 X118.636 Y89.932 E87.24183
G1 X119.305 Y90.053 E87.30607
G1 X119.955 Y90.252 E87.37031
G1 X120.577 Y90.525 E87.4345
G1 X121.162 Y90.87 E87.49868
G1 X121.703 Y91.28 E87.56283
G1 X122.038 Y91.591 E87.60603
G1 X131.452 Y101.043 E88.86669
G1 X131.902 Y101.551 E88.93082
G1 X132.289 Y102.11 E88.99507
G1 X132.609 Y102.709 E89.05925
G1 X132.855 Y103.342 E89.12342
G1 X133.026 Y104 E89.18767
G1 X133.118 Y104.673 E89.25186
G1 X133.135 Y105.13 E89.29508
G1 X133.109 Y117.957 E90.50723
G1 X133.068 Y118.635 E90.57142
G1 X132.947 Y119.303 E90.63557
G1 X132.749 Y119.953 E90.69978
G1 X132.475 Y120.575 E90.76401
G1 X132.131 Y121.161 E90.82823
G1 X131.72 Y121.702 E90.89243
G1 X131.41 Y122.036 E90.93549
G1 X121.958 Y131.453 E92.19635
G1 X121.449 Y131.903 E92.26056
G1 X120.891 Y132.291 E92.32478
G1 X120.292 Y132.61 E92.38891
G1 X119.658 Y132.857 E92.45321
G1 X119.001 Y133.028 E92.51737
G1 X118.328 Y133.12 E92.58156
G1 X117.869 Y133.137 E92.62496
G1 X105.046 Y133.109 E93.83674
G1 X104.368 Y133.068 E93.90093
G1 X103.7 Y132.947 E93.96508
G1 X103.05 Y132.748 E94.02932
G1 X102.428 Y132.475 E94.09351
G1 X101.842 Y132.13 E94.15777
G1 X101.301 Y131.719 E94.22198
G1 X100.969 Y131.411 E94.26477
G1 X91.55 Y121.962 E95.52556
G1 X91.099 Y121.453 E95.58983
G1 X90.712 Y120.896 E95.65392
G1 X90.392 Y120.296 E95.71818
G1 X90.145 Y119.663 E95.7824
G1 X89.975 Y119.005 E95.84662
G1 X89.882 Y118.332 E95.91082
G1 X89.865 Y117.873 E95.95423
G1 X89.891 Y105.044 E97.16657
G1 X89.932 Y104.366 E97.23076
G1 X90.053 Y103.698 E97.29491
G1 X90.251 Y103.048 E97.35912
G1 X90.525 Y102.426 E97.42335
G1 X90.869 Y101.84 E97.48756
G1 X91.28 Y101.299 E97.55177
G1 X91.59 Y100.965 E97.59483
G0 F7500 X91.837 Y101.213
G1 F3000 X101.288 Y91.796 E98.85562
G1 X101.782 Y91.36 E98.91789
G1 X102.325 Y90.988 E98.98009
G1 X102.909 Y90.684 E99.04231
G1 X103.525 Y90.453 E99.10448
G1 X104.165 Y90.298 E99.16671
G1 X105.128 Y90.214 E99.25805
G1 X117.957 Y90.241 E100.4704
G1 X118.615 Y90.282 E100.5327
G1 X119.262 Y90.403 E100.5949
G1 X119.89 Y90.601 E100.65713
G1 X120.489 Y90.874 E100.71933
G1 X121.051 Y91.217 E100.78155
G1 X121.79 Y91.838 E100.87277
G1 X131.204 Y101.29 E102.13343
G1 X131.639 Y101.784 E102.19563
G1 X132.012 Y102.327 E102.25789
G1 X132.316 Y102.911 E102.3201
G1 X132.547 Y103.527 E102.38227
G1 X132.701 Y104.168 E102.44457
G1 X132.785 Y105.129 E102.53573
G1 X132.759 Y117.956 E103.74789
G1 X132.718 Y118.613 E103.81009
G1 X132.597 Y119.261 E103.87239
G1 X132.399 Y119.888 E103.93452
G1 X132.126 Y120.488 E103.99682
G1 X131.783 Y121.05 E104.05904
G1 X131.163 Y121.788 E104.15012
G1 X121.711 Y131.205 E105.41098
G1 X121.217 Y131.641 E105.47325
G1 X120.674 Y132.013 E105.53545
G1 X120.09 Y132.317 E105.59766
G1 X119.473 Y132.548 E105.65992
G1 X118.833 Y132.703 E105.72215
G1 X117.87 Y132.787 E105.8135
G1 X105.047 Y132.759 E107.02528
G1 X104.39 Y132.718 E107.08748
G1 X103.743 Y132.597 E107.14969
G1 X103.115 Y132.399 E107.21191
G1 X102.515 Y132.126 E107.2742
G1 X101.954 Y131.782 E107.33639
G1 X101.217 Y131.164 E107.42728
G1 X91.798 Y121.715 E108.68808
G1 X91.362 Y121.221 E108.75034
G1 X90.989 Y120.678 E108.81259
G1 X90.685 Y120.094 E108.87481
G1 X90.454 Y119.478 E108.93698
G1 X90.299 Y118.838 E108.99921
G1 X90.215 Y117.874 E109.09065
G1 X90.241 Y105.045 E110.303
G1 X90.282 Y104.388 E110.3652
